X: 117
P: Longways for as many as will
M: C|
L: 1/8
K: F
cB |\
ef |\
g2e2 f2e2 | df ed ^c2A2 | a2(gf) (ef) (ed) | d6 AB |\
c2f2 (dc) (BA) | G2g2 e2(dc) | a2(gf) f3e | f6 |]

